src/icons/svgs/24/user.svg

<svg width="24" height="24" viewBox="0 0 24 24" fill="none" xmlns="http://www.w3.org/2000/svg">
<path d="M13.7143 13.6875H10.2857C6.81429 13.6875 4 16.4578 4 19.875C4 20.4962 4.51179 21 5.14286 21H18.8571C19.4882 21 20 20.4962 20 19.875C20 16.4578 17.1857 13.6875 13.7143 13.6875ZM5.74964 19.3125C6.03179 17.0941 7.95714 15.375 10.2857 15.375H13.7143C16.0414 15.375 17.9679 17.0959 18.25 19.3125H5.74964ZM12 12C14.5246 12 16.5714 9.9852 16.5714 7.5C16.5714 5.0148 14.5246 3 12 3C9.47536 3 7.42857 5.0148 7.42857 7.5C7.42857 9.98555 9.475 12 12 12ZM12 4.6875C13.5754 4.6875 14.8571 5.94926 14.8571 7.5C14.8571 9.05074 13.5754 10.3125 12 10.3125C10.4246 10.3125 9.14286 9.05039 9.14286 7.5C9.14286 5.94926 10.425 4.6875 12 4.6875Z" fill="black"/>
</svg>

<svg width="24" height="24" viewBox="0 0 24 24" xmlns="http://www.w3.org/2000/svg">
    <path d="M13.714 13.688h-3.428C6.814 13.688 4 16.457 4 19.875 4 20.496 4.512 21 5.143 21h13.714c.631 0 1.143-.504 1.143-1.125 0-3.417-2.814-6.188-6.286-6.188zM5.75 19.311c.282-2.218 2.207-3.937 4.536-3.937h3.428c2.327 0 4.254 1.72 4.536 3.938H5.75zM12 12c2.525 0 4.571-2.015 4.571-4.5S14.525 3 12 3 7.429 5.015 7.429 7.5C7.429 9.986 9.475 12 12 12zm0-7.313c1.575 0 2.857 1.262 2.857 2.813 0 1.55-1.282 2.813-2.857 2.813-1.575 0-2.857-1.263-2.857-2.813 0-1.55 1.282-2.813 2.857-2.813z"/>
</svg>
